docs/.gitbook/assets/icon-full-signal-16@light.svg

<svg width="32" height="32" viewBox="0 0 16 16" fill="none" xmlns="http://www.w3.org/2000/svg">
<rect x="0" y="0" width="16" height="16" fill="#fff"/>
<path fill-rule="evenodd" clip-rule="evenodd" d="M13 2.75C13 2.33579 13.3358 2 13.75 2H14.25C14.6642 2 15 2.33579 15 2.75V13.25C15 13.6642 14.6642 14 14.25 14H13.75C13.3358 14 13 13.6642 13 13.25V2.75ZM9 4.75C9 4.33579 9.33579 4 9.75 4H10.25C10.6642 4 11 4.33579 11 4.75V13.25C11 13.6642 10.6642 14 10.25 14H9.75C9.33579 14 9 13.6642 9 13.25V4.75ZM5 7.75C5 7.33579 5.33579 7 5.75 7H6.25C6.66421 7 7 7.33579 7 7.75V13.25C7 13.6642 6.66421 14 6.25 14H5.75C5.33579 14 5 13.6642 5 13.25V7.75ZM1 9.75C1 9.33579 1.33579 9 1.75 9H2.25C2.66421 9 3 9.33579 3 9.75V13.25C3 13.6642 2.66421 14 2.25 14H1.75C1.33579 14 1 13.6642 1 13.25V9.75Z" fill="#000"/>
</svg>

<svg xmlns="http://www.w3.org/2000/svg" width="32" height="32" fill="none" viewBox="0 0 16 16"><path fill="#fff" d="M0 0h16v16H0z"/><path fill="#000" fill-rule="evenodd" d="M13 2.75a.75.75 0 0 1 .75-.75h.5a.75.75 0 0 1 .75.75v10.5a.75.75 0 0 1-.75.75h-.5a.75.75 0 0 1-.75-.75zm-4 2A.75.75 0 0 1 9.75 4h.5a.75.75 0 0 1 .75.75v8.5a.75.75 0 0 1-.75.75h-.5a.75.75 0 0 1-.75-.75zm-4 3A.75.75 0 0 1 5.75 7h.5a.75.75 0 0 1 .75.75v5.5a.75.75 0 0 1-.75.75h-.5a.75.75 0 0 1-.75-.75zm-4 2A.75.75 0 0 1 1.75 9h.5a.75.75 0 0 1 .75.75v3.5a.75.75 0 0 1-.75.75h-.5a.75.75 0 0 1-.75-.75z" clip-rule="evenodd"/></svg>
